assets/img/logo.svg

<?xml version="1.0"?>
<svg version="1.1" xmlns="http://www.w3.org/2000/svg" xmlns:xlink="http://www.w3.org/1999/xlink" width="240" height="180">
    <desc iVinci="yes" version="4.6" gridStep="20" showGrid="no" snapToGrid="no" codePlatform="0"/>
    <g id="Layer1" name="Layer 1" opacity="1">
        <g id="Shape1">
            <desc shapeID="1" type="2" basicInfo-basicType="0" basicInfo-roundedRectRadius="12" basicInfo-polygonSides="6" basicInfo-starPoints="5" bounding="rect(-187,-39,374,78)" text="Real&#10;" font-familyName="Monotype Corsiva" font-pixelSize="96" font-bold="0" font-underline="0" font-alignment="0" strokeStyle="0" markerStart="0" markerEnd="0" shadowEnabled="0" shadowOffsetX="0" shadowOffsetY="2" shadowBlur="4" shadowOpacity="160" blurEnabled="0" blurRadius="4" transform="matrix(1,0,0,1,181.055,45.8746)" pers-center="0,0" pers-size="0,0" pers-start="0,0" pers-end="0,0" locked="0" mesh="" flag=""/>
            <path id="shapePath1" d="M28.6019,41.9058 L22.3206,66.7965 C23.8206,67.0152 25.0237,67.1246 25.93,67.1246 C27.305,67.1246 29.0081,66.8902 31.0394,66.4215 L30.5706,68.7183 C28.4769,69.1558 26.8519,69.3746 25.6956,69.3746 C24.4769,69.3746 22.68,69.2652 20.305,69.0465 C18.2112,68.8277 16.4769,68.7183 15.1019,68.7183 C12.6019,68.7183 9.71123,69.0777 6.42998,69.7965 L7.1331,67.1715 C10.5706,66.2965 12.805,65.4371 13.8362,64.5933 C15.3987,63.2496 16.6019,60.8902 17.4456,57.5152 L24.0081,31.3121 C24.8206,27.9683 25.2269,25.9996 25.2269,25.4058 C25.2269,24.8433 25.0315,24.4215 24.6409,24.1402 C24.2503,23.859 23.4769,23.734 22.3206,23.7652 L22.93,21.5152 C26.0862,21.484 29.8675,20.9058 34.2737,19.7808 C33.8987,20.9683 33.4144,22.7183 32.8206,25.0308 L29.305,38.859 C30.805,39.1715 32.0706,39.3277 33.1019,39.3277 C37.0081,39.3277 40.3519,37.9605 43.1331,35.2262 C45.9144,32.4918 47.305,29.2496 47.305,25.4996 C47.305,22.5933 46.1878,20.2027 43.9534,18.3277 C41.719,16.4527 38.68,15.5152 34.8362,15.5152 C29.93,15.5152 25.1331,16.7027 20.4456,19.0777 C15.7581,21.4527 12.2425,24.398 9.89873,27.9137 C7.55498,31.4293 6.3831,35.109 6.3831,38.9527 C6.3831,41.859 7.58623,44.359 9.99248,46.4527 C11.2112,47.484 11.9612,48.234 12.2425,48.7027 C12.5237,49.1715 12.6644,49.6715 12.6644,50.2027 C12.6644,50.859 12.4222,51.4293 11.9378,51.9137 C11.4534,52.398 10.8675,52.6402 10.18,52.6402 C8.49248,52.6402 6.99248,51.6558 5.67998,49.6871 C3.99248,47.1246 3.14873,43.9683 3.14873,40.2183 C3.14873,35.4058 4.47685,30.9215 7.1331,26.7652 C9.78935,22.609 13.8128,19.1715 19.2034,16.4527 C24.594,13.734 30.2737,12.3746 36.2425,12.3746 C41.805,12.3746 46.3831,13.4215 49.9769,15.5152 C53.5706,17.609 55.3675,20.7027 55.3675,24.7965 C55.3675,28.6402 53.719,32.2183 50.4222,35.5308 C47.1253,38.8433 42.5862,40.9683 36.805,41.9058 C38.2425,44.7808 39.1644,46.7183 39.5706,47.7183 C40.2269,49.4058 41.2269,52.2496 42.5706,56.2496 C45.7269,65.6558 48.9925,72.2808 52.3675,76.1246 C54.8675,78.9371 57.5706,80.3433 60.4769,80.3433 C63.4769,80.3433 65.3987,78.984 66.2425,76.2652 C66.7425,74.5465 67.2112,73.484 67.6487,73.0777 C68.2425,72.5152 68.9144,72.234 69.6644,72.234 C70.4144,72.234 71.0472,72.4996 71.5628,73.0308 C72.0784,73.5621 72.3362,74.2027 72.3362,74.9527 C72.3362,76.8902 71.2737,78.734 69.1487,80.484 C67.0237,82.234 64.2894,83.109 60.9456,83.109 C57.9144,83.109 55.0159,82.3746 52.2503,80.9058 C49.4847,79.4371 46.7972,77.0308 44.1878,73.6871 C41.5784,70.3433 39.305,66.3277 37.3675,61.6402 C36.3987,59.2965 34.9769,54.9996 33.1019,48.7496 C31.9769,44.9371 31.2737,42.6558 30.9925,41.9058 L29.8206,41.8121 C29.5394,41.8121 29.1331,41.8433 28.6019,41.9058 M84.3831,56.9527 L85.93,59.0152 C78.2737,66.2965 71.7112,69.9371 66.2425,69.9371 C64.0237,69.9371 62.3284,69.1871 61.1565,67.6871 C59.9847,66.1871 59.3987,63.7808 59.3987,60.4683 C59.3987,53.7808 61.43,47.1246 65.4925,40.4996 C70.055,32.9683 75.5081,29.2027 81.8519,29.2027 C84.0706,29.2027 85.7659,29.7574 86.9378,30.8668 C88.1097,31.9762 88.6956,33.4996 88.6956,35.4371 C88.6956,37.4683 87.9925,39.4683 86.5862,41.4371 C85.18,43.4058 82.6644,45.4527 79.0394,47.5777 C77.2269,48.609 73.3519,50.4683 67.4144,53.1558 C67.1331,54.8433 66.9925,56.4527 66.9925,57.984 C66.9925,60.2027 67.344,61.7496 68.0472,62.6246 C68.7503,63.4996 69.7737,63.9371 71.1175,63.9371 C72.3987,63.9371 73.805,63.5777 75.3362,62.859 C77.3987,61.8902 80.4144,59.9215 84.3831,56.9527 M67.9769,50.1558 C73.0081,47.9058 76.7894,45.484 79.3206,42.8902 C81.0394,41.0777 81.8987,39.2808 81.8987,37.4996 C81.8987,36.1558 81.5472,35.0855 80.844,34.2887 C80.1409,33.4918 79.2269,33.0933 78.1019,33.0933 C76.9456,33.0933 75.8206,33.5308 74.7269,34.4058 C73.2581,35.5621 72.0237,37.3121 71.0237,39.6558 C69.5862,43.0933 68.5706,46.5933 67.9769,50.1558 M124.414,28.4996 L127.508,27.8433 L123.992,39.7027 C122.586,44.4215 121.258,49.859 120.008,56.0152 C119.321,59.359 118.977,61.5152 118.977,62.484 C118.977,63.4527 119.367,63.9371 120.149,63.9371 C120.649,63.9371 121.446,63.609 122.539,62.9527 C124.477,61.7965 126.336,60.359 128.117,58.6402 L129.617,60.4683 C126.055,63.7183 123.774,65.6871 122.774,66.3746 C120.774,67.7496 118.867,68.7652 117.055,69.4215 C115.867,69.859 114.711,70.0777 113.586,70.0777 C112.774,70.0777 112.164,69.8902 111.758,69.5152 C111.352,69.1402 111.149,68.5933 111.149,67.8746 C111.149,67.4058 111.274,66.7652 111.524,65.9527 L113.399,59.5777 C110.711,62.7965 107.508,65.5621 103.789,67.8746 C101.508,69.3121 99.4144,70.0308 97.5081,70.0308 C95.6956,70.0308 94.305,69.3902 93.3362,68.109 C92.0237,66.3902 91.3675,64.1402 91.3675,61.359 C91.3675,58.0465 92.2503,54.359 94.0159,50.2965 C95.7815,46.234 98.1487,42.5465 101.117,39.234 C104.086,35.9215 107.211,33.484 110.492,31.9215 C113.024,30.734 116.274,30.1402 120.242,30.1402 C121.242,30.1402 122.258,30.2027 123.289,30.3277 L124.414,28.4996 M118.602,35.6715 C116.914,35.3277 115.492,35.1558 114.336,35.1558 C111.524,35.1558 109.071,35.9293 106.977,37.4762 C104.883,39.023 102.938,41.8043 101.141,45.8199 C99.344,49.8355 98.4456,53.8433 98.4456,57.8433 C98.4456,59.9683 98.805,61.4996 99.5237,62.4371 C100.242,63.3746 101.18,63.8433 102.336,63.8433 C104.492,63.8433 106.805,62.6793 109.274,60.3512 C111.742,58.023 113.555,54.6715 114.711,50.2965 L118.602,35.6715 M152.258,57.4215 L153.852,59.109 C151.414,61.859 148.532,64.3668 145.203,66.6324 C141.875,68.898 139.133,70.0308 136.977,70.0308 C136.008,70.0308 135.211,69.6637 134.586,68.9293 C133.961,68.1949 133.649,67.1871 133.649,65.9058 C133.649,63.4058 134.617,58.2183 136.555,50.3433 L141.617,29.7652 C143.461,22.3277 145.008,17.3433 146.258,14.8121 C148.196,10.9683 150.938,7.98397 154.485,5.85897 C158.032,3.73397 161.774,2.67147 165.711,2.67147 C167.055,2.67147 168.11,2.99178 168.875,3.6324 C169.641,4.27303 170.024,5.04647 170.024,5.95272 C170.024,6.95272 169.649,7.77303 168.899,8.41365 C168.149,9.05428 167.055,9.37459 165.617,9.37459 C164.68,9.37459 163.352,9.21834 161.633,8.90584 C160.133,8.65584 158.742,8.53084 157.461,8.53084 C156.18,8.53084 155.211,8.79647 154.555,9.32772 C153.649,10.0777 152.828,11.6558 152.094,14.0621 C151.36,16.4683 150.164,21.2183 148.508,28.3121 L143.867,47.9527 C141.555,57.7965 140.399,62.9371 140.399,63.3746 C140.399,64.3746 140.758,64.8746 141.477,64.8746 C142.164,64.8746 143.164,64.4683 144.477,63.6558 C147.071,62.0308 149.664,59.9527 152.258,57.4215 Z" style="stroke:none;fill-rule:nonzero;fill:#ffffff;fill-opacity:1;"/>
        </g>
        <g id="Shape2">
            <desc shapeID="2" type="2" basicInfo-basicType="0" basicInfo-roundedRectRadius="12" basicInfo-polygonSides="6" basicInfo-starPoints="5" bounding="rect(-187,-44,374,88)" text="Quest" font-familyName="Monotype Corsiva" font-pixelSize="96" font-bold="0" font-underline="0" font-alignment="0" strokeStyle="0" markerStart="0" markerEnd="0" shadowEnabled="0" shadowOffsetX="0" shadowOffsetY="2" shadowBlur="4" shadowOpacity="160" blurEnabled="0" blurRadius="4" transform="matrix(1,0,0,1,215.086,126.312)" pers-center="0,0" pers-size="0,0" pers-start="0,0" pers-end="0,0" locked="0" mesh="" flag=""/>
            <path id="shapePath2" d="M64.6955,149.953 C67.508,152.578 70.1174,155.109 72.5236,157.547 C76.8674,161.922 79.8986,164.75 81.6174,166.031 C84.0549,167.843 86.1643,169.086 87.9455,169.757 C89.7268,170.429 91.3518,170.765 92.8205,170.765 C94.0705,170.765 95.1955,170.578 96.1955,170.203 C97.1955,169.828 98.1018,169.265 98.9143,168.515 C99.383,168.078 99.9924,167.125 100.742,165.656 C101.555,164.062 102.586,163.265 103.836,163.265 C104.461,163.265 105.008,163.507 105.477,163.992 C105.946,164.476 106.18,165.047 106.18,165.703 C106.18,167.39 104.914,169.015 102.383,170.578 C98.8518,172.765 94.8205,173.859 90.2893,173.859 C87.258,173.859 84.7893,173.547 82.883,172.922 C80.258,172.047 77.7658,170.781 75.4064,169.125 C73.0471,167.468 69.8986,164.593 65.9611,160.5 C62.3674,156.812 60.0158,154.476 58.9064,153.492 C57.7971,152.507 56.6955,151.687 55.6018,151.031 C55.008,150.656 53.5861,150.031 51.3361,149.156 C46.9611,147.406 43.633,144.781 41.3518,141.281 C39.0705,137.781 37.9299,133.562 37.9299,128.625 C37.9299,120.125 40.8518,112.062 46.6955,104.437 C52.5393,96.8121 60.0861,92.9996 69.3361,92.9996 C73.7424,92.9996 77.5236,93.8824 80.6799,95.6481 C83.8361,97.4137 86.3283,100.015 88.1564,103.453 C89.9846,106.89 90.8986,110.765 90.8986,115.078 C90.8986,122.734 88.4221,130.125 83.4689,137.25 C78.5158,144.375 72.258,148.609 64.6955,149.953 M66.8049,96.4215 C63.1799,96.4215 59.8439,97.4918 56.7971,99.6324 C53.7502,101.773 51.258,105.117 49.3205,109.664 C47.383,114.211 46.4143,119.484 46.4143,125.484 C46.4143,132.359 47.9299,137.664 50.9611,141.398 C53.9924,145.132 57.7736,147 62.3049,147 C65.6799,147 68.8752,145.89 71.8908,143.672 C74.9064,141.453 77.3908,137.961 79.3439,133.195 C81.2971,128.429 82.2736,122.953 82.2736,116.765 C82.2736,110.359 80.7814,105.367 77.7971,101.789 C74.8127,98.2106 71.1486,96.4215 66.8049,96.4215 M125.539,111 L132.196,111 L127.789,127.359 C125.196,136.859 123.899,142.265 123.899,143.578 C123.899,144.172 124.039,144.625 124.321,144.937 C124.602,145.25 124.914,145.406 125.258,145.406 C125.789,145.406 126.414,145.172 127.133,144.703 C128.164,143.984 130.117,142.172 132.992,139.265 L134.539,141 C128.258,147.531 123.633,150.797 120.664,150.797 C119.664,150.797 118.813,150.414 118.11,149.648 C117.406,148.882 117.055,147.797 117.055,146.39 C117.055,144.765 117.399,142.593 118.086,139.875 C115.305,143.062 111.867,145.859 107.774,148.265 C105.055,149.859 102.696,150.656 100.696,150.656 C99.6018,150.656 98.7424,150.297 98.1174,149.578 C97.4924,148.859 97.1799,147.718 97.1799,146.156 C97.1799,144.937 97.3205,143.625 97.6018,142.218 C98.008,140.25 99.0393,136.297 100.696,130.359 C102.789,122.828 103.836,118.312 103.836,116.812 C103.836,115.937 103.524,115.5 102.899,115.5 C102.336,115.5 101.571,115.789 100.602,116.367 C99.633,116.945 97.9768,118.343 95.633,120.562 L93.5705,118.922 C97.758,115.172 100.953,112.711 103.156,111.539 C105.36,110.367 107.133,109.781 108.477,109.781 C109.227,109.781 109.836,110.054 110.305,110.601 C110.774,111.148 111.008,112 111.008,113.156 C111.008,115.312 109.883,120.609 107.633,129.047 C105.633,136.64 104.633,140.968 104.633,142.031 C104.633,142.687 104.844,143.25 105.266,143.718 C105.688,144.187 106.149,144.422 106.649,144.422 C108.399,144.422 110.883,142.976 114.102,140.086 C117.321,137.195 119.43,133.906 120.43,130.218 L125.539,111 M162.571,137.39 L164.117,139.453 C156.461,146.734 149.899,150.375 144.43,150.375 C142.211,150.375 140.516,149.625 139.344,148.125 C138.172,146.625 137.586,144.218 137.586,140.906 C137.586,134.218 139.617,127.562 143.68,120.937 C148.242,113.406 153.696,109.64 160.039,109.64 C162.258,109.64 163.953,110.195 165.125,111.304 C166.297,112.414 166.883,113.937 166.883,115.875 C166.883,117.906 166.18,119.906 164.774,121.875 C163.367,123.843 160.852,125.89 157.227,128.015 C155.414,129.047 151.539,130.906 145.602,133.593 C145.321,135.281 145.18,136.89 145.18,138.422 C145.18,140.64 145.531,142.187 146.235,143.062 C146.938,143.937 147.961,144.375 149.305,144.375 C150.586,144.375 151.992,144.015 153.524,143.297 C155.586,142.328 158.602,140.359 162.571,137.39 M146.164,130.593 C151.196,128.343 154.977,125.922 157.508,123.328 C159.227,121.515 160.086,119.718 160.086,117.937 C160.086,116.593 159.735,115.523 159.031,114.726 C158.328,113.929 157.414,113.531 156.289,113.531 C155.133,113.531 154.008,113.968 152.914,114.843 C151.446,116 150.211,117.75 149.211,120.093 C147.774,123.531 146.758,127.031 146.164,130.593 M191.211,109.687 C193.992,109.687 196.141,110.226 197.656,111.304 C199.172,112.382 199.93,113.625 199.93,115.031 C199.93,115.875 199.61,116.609 198.969,117.234 C198.328,117.859 197.555,118.172 196.649,118.172 C196.055,118.172 195.539,118.039 195.102,117.773 C194.664,117.507 194.039,116.843 193.227,115.781 C191.696,113.75 190.18,112.734 188.68,112.734 C187.399,112.734 186.266,113.226 185.281,114.211 C184.297,115.195 183.805,116.422 183.805,117.89 C183.805,119.172 184.117,120.414 184.742,121.617 C185.367,122.82 186.946,124.765 189.477,127.453 C192.946,131.14 194.68,134.64 194.68,137.953 C194.68,141.265 193.274,144.164 190.461,146.648 C187.649,149.132 184.024,150.375 179.586,150.375 C175.867,150.375 173.102,149.617 171.289,148.101 C169.477,146.586 168.571,144.718 168.571,142.5 C168.571,141.406 168.914,140.5 169.602,139.781 C170.289,139.062 171.133,138.703 172.133,138.703 C173.008,138.703 173.758,138.992 174.383,139.57 C175.008,140.148 175.321,140.828 175.321,141.609 C175.321,141.922 175.289,142.328 175.227,142.828 C175.196,143.234 175.18,143.578 175.18,143.859 C175.18,144.89 175.617,145.765 176.492,146.484 C177.336,147.203 178.492,147.562 179.961,147.562 C181.649,147.562 183.133,147.273 184.414,146.695 C185.696,146.117 186.696,145.242 187.414,144.07 C188.133,142.898 188.492,141.734 188.492,140.578 C188.492,139.453 188.156,138.328 187.485,137.203 C186.813,136.078 185.305,134.218 182.961,131.625 C179.711,128 178.086,124.515 178.086,121.172 C178.086,118.109 179.321,115.429 181.789,113.132 C184.258,110.836 187.399,109.687 191.211,109.687 M214.461,102.515 L221.914,99.6559 L218.539,112.781 L228.242,112.781 L227.492,116.109 L217.789,116.109 L213.664,131.812 C212.383,136.531 211.742,139.812 211.742,141.656 C211.742,142.5 211.922,143.109 212.281,143.484 C212.641,143.859 213.133,144.047 213.758,144.047 C214.727,144.047 216.211,143.468 218.211,142.312 C220.836,140.781 223.336,139.047 225.711,137.109 L227.492,139.265 C220.649,144.422 216.071,147.578 213.758,148.734 C211.446,149.89 209.586,150.468 208.18,150.468 C207.024,150.468 206.11,150.047 205.438,149.203 C204.766,148.359 204.43,146.984 204.43,145.078 C204.43,142.828 205.024,139.39 206.211,134.765 L211.039,116.109 L203.446,116.109 L204.289,112.781 L211.836,112.781 L214.461,102.515 Z" style="stroke:none;fill-rule:nonzero;fill:#ffffff;fill-opacity:1;"/>
        </g>
    </g>
</svg>

<svg xmlns="http://www.w3.org/2000/svg" width="240" height="180"><path d="M28.602 41.906l-6.281 24.89c1.5.22 2.703.329 3.609.329 1.375 0 3.078-.235 5.11-.704l-.47 2.297c-2.093.438-3.718.657-4.874.657-1.22 0-3.016-.11-5.391-.329-2.094-.218-3.828-.328-5.203-.328-2.5 0-5.39.36-8.672 1.078l.703-2.625c3.438-.875 5.672-1.734 6.703-2.578 1.563-1.343 2.766-3.703 3.61-7.078l6.562-26.203c.813-3.344 1.219-5.312 1.219-5.906 0-.563-.195-.984-.586-1.266-.39-.281-1.164-.406-2.32-.375l.609-2.25c3.156-.031 6.938-.61 11.344-1.734-.375 1.187-.86 2.937-1.453 5.25l-3.516 13.828c1.5.313 2.766.469 3.797.469 3.906 0 7.25-1.367 10.031-4.102 2.781-2.734 4.172-5.976 4.172-9.726 0-2.907-1.117-5.297-3.352-7.172-2.234-1.875-5.273-2.813-9.117-2.813-4.906 0-9.703 1.188-14.39 3.563-4.688 2.375-8.204 5.32-10.547 8.836-2.344 3.515-3.516 7.195-3.516 11.039 0 2.906 1.203 5.406 3.61 7.5 1.218 1.031 1.968 1.781 2.25 2.25.28.468.421.968.421 1.5 0 .656-.242 1.226-.726 1.71a2.395 2.395 0 0 1-1.758.727c-1.688 0-3.188-.984-4.5-2.953-1.688-2.562-2.531-5.719-2.531-9.469 0-4.812 1.328-9.297 3.984-13.453 2.656-4.156 6.68-7.593 12.07-10.312 5.391-2.719 11.07-4.078 17.04-4.078 5.562 0 10.14 1.046 13.734 3.14 3.594 2.094 5.39 5.188 5.39 9.282 0 3.843-1.648 7.421-4.945 10.734-3.297 3.312-7.836 5.437-13.617 6.375 1.438 2.875 2.36 4.812 2.766 5.812.656 1.688 1.656 4.532 3 8.532 3.156 9.406 6.422 16.03 9.797 19.875 2.5 2.812 5.203 4.218 8.109 4.218 3 0 4.922-1.359 5.766-4.078.5-1.719.968-2.781 1.406-3.187.594-.563 1.265-.844 2.015-.844.75 0 1.383.266 1.899.797a2.66 2.66 0 0 1 .773 1.922c0 1.937-1.062 3.781-3.187 5.531-2.125 1.75-4.86 2.625-8.203 2.625-3.032 0-5.93-.734-8.696-2.203-2.765-1.469-5.453-3.875-8.062-7.219-2.61-3.344-4.883-7.36-6.82-12.047-.97-2.343-2.391-6.64-4.266-12.89-1.125-3.813-1.828-6.094-2.11-6.844l-1.171-.094c-.282 0-.688.031-1.22.094m55.782 15.047l1.547 2.062c-7.656 7.281-14.219 10.922-19.688 10.922-2.218 0-3.914-.75-5.086-2.25-1.171-1.5-1.757-3.906-1.757-7.219 0-6.687 2.031-13.343 6.094-19.968 4.562-7.532 10.015-11.297 16.359-11.297 2.219 0 3.914.554 5.086 1.664 1.172 1.11 1.758 2.633 1.758 4.57 0 2.031-.703 4.031-2.11 6-1.406 1.969-3.922 4.016-7.547 6.14-1.812 1.032-5.687 2.891-11.625 5.579a29.393 29.393 0 0 0-.421 4.828c0 2.219.351 3.766 1.054 4.64.703.876 1.727 1.313 3.07 1.313 1.282 0 2.688-.36 4.22-1.078 2.062-.969 5.077-2.938 9.046-5.906m-16.406-6.797c5.031-2.25 8.812-4.672 11.344-7.266 1.718-1.812 2.578-3.61 2.578-5.39 0-1.344-.352-2.414-1.055-3.211-.703-.797-1.617-1.196-2.742-1.196-1.156 0-2.281.438-3.375 1.313-1.469 1.156-2.703 2.906-3.703 5.25a47.297 47.297 0 0 0-3.047 10.5M124.414 28.5l3.094-.657-3.516 11.86c-1.406 4.718-2.734 10.156-3.984 16.312-.687 3.344-1.031 5.5-1.031 6.469 0 .969.39 1.453 1.172 1.453.5 0 1.297-.328 2.39-.984 1.938-1.157 3.797-2.594 5.578-4.313l1.5 1.828c-3.562 3.25-5.843 5.22-6.843 5.907-2 1.375-3.907 2.39-5.719 3.046-1.188.438-2.344.657-3.469.657-.812 0-1.422-.188-1.828-.563-.406-.375-.609-.922-.609-1.64 0-.47.125-1.11.375-1.922l1.875-6.375c-2.688 3.218-5.891 5.984-9.61 8.297-2.281 1.437-4.375 2.156-6.28 2.156-1.813 0-3.204-.64-4.173-1.922-1.312-1.719-1.968-3.969-1.968-6.75 0-3.313.882-7 2.648-11.063a40.908 40.908 0 0 1 7.101-11.062c2.969-3.313 6.094-5.75 9.375-7.313 2.532-1.187 5.782-1.78 9.75-1.78 1 0 2.016.062 3.047.187l1.125-1.828m-5.812 7.172c-1.688-.344-3.11-.516-4.266-.516-2.812 0-5.265.773-7.359 2.32-2.094 1.547-4.039 4.328-5.836 8.344-1.797 4.016-2.695 8.023-2.695 12.023 0 2.125.359 3.657 1.078 4.594.718.938 1.656 1.406 2.812 1.406 2.156 0 4.469-1.164 6.938-3.492 2.468-2.328 4.281-5.68 5.437-10.054l3.891-14.625m33.656 21.75l1.594 1.687c-2.438 2.75-5.32 5.258-8.649 7.523-3.328 2.266-6.07 3.399-8.226 3.399-.969 0-1.766-.367-2.391-1.102-.625-.734-.937-1.742-.937-3.023 0-2.5.968-7.688 2.906-15.563l5.062-20.578c1.844-7.437 3.391-12.422 4.641-14.953 1.938-3.844 4.68-6.828 8.227-8.953 3.547-2.125 7.289-3.188 11.226-3.188 1.344 0 2.399.32 3.164.961.766.641 1.149 1.414 1.149 2.32 0 1-.375 1.821-1.125 2.462-.75.64-1.844.96-3.282.96-.937 0-2.265-.156-3.984-.468-1.5-.25-2.891-.375-4.172-.375-1.281 0-2.25.265-2.906.797-.906.75-1.727 2.328-2.461 4.734-.734 2.406-1.93 7.156-3.586 14.25l-4.641 19.64c-2.312 9.845-3.468 14.985-3.468 15.423 0 1 .359 1.5 1.078 1.5.687 0 1.687-.407 3-1.22 2.594-1.624 5.187-3.702 7.781-6.233zm-87.563 92.531a266.473 266.473 0 0 1 7.829 7.594c4.343 4.375 7.375 7.203 9.093 8.484 2.438 1.812 4.547 3.055 6.328 3.726 1.782.672 3.407 1.008 4.876 1.008 1.25 0 2.374-.187 3.374-.562 1-.375 1.907-.938 2.72-1.688.468-.437 1.077-1.39 1.827-2.859.813-1.594 1.844-2.391 3.094-2.391.625 0 1.172.242 1.641.727.469.484.703 1.055.703 1.711 0 1.687-1.266 3.312-3.797 4.875-3.531 2.187-7.563 3.281-12.094 3.281-3.031 0-5.5-.312-7.406-.937-2.625-.875-5.117-2.141-7.477-3.797-2.359-1.657-5.507-4.532-9.445-8.625-3.594-3.688-5.945-6.024-7.055-7.008-1.109-.985-2.21-1.805-3.304-2.461-.594-.375-2.016-1-4.266-1.875-4.375-1.75-7.703-4.375-9.984-7.875-2.281-3.5-3.422-7.719-3.422-12.656 0-8.5 2.922-16.563 8.766-24.188C52.538 96.812 60.086 93 69.335 93c4.406 0 8.188.882 11.344 2.648 3.156 1.766 5.648 4.367 7.476 7.805 1.829 3.437 2.743 7.312 2.743 11.625 0 7.656-2.477 15.047-7.43 22.172-4.953 7.125-11.211 11.359-18.773 12.703m2.109-53.532c-3.625 0-6.961 1.07-10.008 3.211-3.047 2.141-5.539 5.485-7.476 10.032-1.938 4.547-2.907 9.82-2.907 15.82 0 6.875 1.516 12.18 4.547 15.914 3.031 3.734 6.813 5.602 11.344 5.602 3.375 0 6.57-1.11 9.586-3.328 3.015-2.219 5.5-5.711 7.453-10.477 1.953-4.766 2.93-10.242 2.93-16.43 0-6.406-1.493-11.398-4.477-14.976-2.984-3.578-6.648-5.368-10.992-5.368M125.539 111h6.657l-4.407 16.359c-2.593 9.5-3.89 14.906-3.89 16.219 0 .594.14 1.047.422 1.359.281.313.593.469.937.469.531 0 1.156-.234 1.875-.703 1.031-.719 2.984-2.531 5.859-5.438l1.547 1.735c-6.281 6.531-10.906 9.797-13.875 9.797-1 0-1.851-.383-2.554-1.149-.704-.766-1.055-1.851-1.055-3.258 0-1.625.344-3.797 1.031-6.515-2.781 3.187-6.219 5.984-10.312 8.39-2.719 1.594-5.078 2.391-7.078 2.391-1.094 0-1.954-.359-2.579-1.078-.625-.719-.937-1.86-.937-3.422 0-1.219.14-2.531.422-3.938.406-1.968 1.437-5.921 3.094-11.859 2.093-7.531 3.14-12.047 3.14-13.547 0-.875-.312-1.312-.937-1.312-.563 0-1.328.289-2.297.867-.969.578-2.625 1.976-4.969 4.195l-2.063-1.64c4.188-3.75 7.383-6.211 9.586-7.383 2.204-1.172 3.977-1.758 5.321-1.758.75 0 1.359.273 1.828.82.469.547.703 1.399.703 2.555 0 2.156-1.125 7.453-3.375 15.891-2 7.593-3 11.921-3 12.984 0 .656.211 1.219.633 1.687.422.469.883.704 1.383.704 1.75 0 4.234-1.446 7.453-4.336 3.219-2.891 5.328-6.18 6.328-9.868L125.539 111m37.032 26.39l1.546 2.063c-7.656 7.281-14.218 10.922-19.687 10.922-2.219 0-3.914-.75-5.086-2.25-1.172-1.5-1.758-3.907-1.758-7.219 0-6.688 2.031-13.344 6.094-19.969 4.562-7.531 10.016-11.297 16.359-11.297 2.219 0 3.914.555 5.086 1.664 1.172 1.11 1.758 2.633 1.758 4.571 0 2.031-.703 4.031-2.109 6-1.407 1.968-3.922 4.015-7.547 6.14-1.813 1.032-5.688 2.891-11.625 5.578a29.434 29.434 0 0 0-.422 4.829c0 2.218.351 3.765 1.055 4.64.703.875 1.726 1.313 3.07 1.313 1.281 0 2.687-.36 4.219-1.078 2.062-.969 5.078-2.938 9.047-5.907m-16.407-6.797c5.032-2.25 8.813-4.671 11.344-7.265 1.719-1.813 2.578-3.61 2.578-5.391 0-1.344-.351-2.414-1.055-3.211-.703-.797-1.617-1.195-2.742-1.195-1.156 0-2.281.437-3.375 1.312-1.468 1.157-2.703 2.907-3.703 5.25a47.356 47.356 0 0 0-3.047 10.5m45.047-20.906c2.781 0 4.93.539 6.445 1.617 1.516 1.078 2.274 2.321 2.274 3.727 0 .844-.32 1.578-.961 2.203a3.203 3.203 0 0 1-2.32.938c-.594 0-1.11-.133-1.547-.399-.438-.266-1.063-.93-1.875-1.992-1.531-2.031-3.047-3.047-4.547-3.047-1.281 0-2.414.492-3.399 1.477-.984.984-1.476 2.211-1.476 3.679 0 1.282.312 2.524.937 3.727.625 1.203 2.204 3.148 4.735 5.836 3.469 3.687 5.203 7.187 5.203 10.5 0 3.312-1.406 6.211-4.219 8.695-2.812 2.484-6.437 3.727-10.875 3.727-3.719 0-6.484-.758-8.297-2.274-1.812-1.515-2.718-3.383-2.718-5.601 0-1.094.343-2 1.031-2.719.687-.719 1.531-1.078 2.531-1.078.875 0 1.625.289 2.25.867.625.578.938 1.258.938 2.039 0 .313-.032.719-.094 1.219-.031.406-.047.75-.047 1.031 0 1.031.437 1.906 1.312 2.625.844.719 2 1.078 3.469 1.078 1.688 0 3.172-.289 4.453-.867 1.282-.578 2.282-1.453 3-2.625.719-1.172 1.078-2.336 1.078-3.492 0-1.125-.336-2.25-1.007-3.375-.672-1.125-2.18-2.985-4.524-5.578-3.25-3.625-4.875-7.11-4.875-10.453 0-3.063 1.235-5.743 3.703-8.04 2.469-2.296 5.61-3.445 9.422-3.445m23.25-7.172l7.453-2.86-3.375 13.126h9.703l-.75 3.328h-9.703l-4.125 15.703c-1.281 4.719-1.922 8-1.922 9.844 0 .844.18 1.453.539 1.828.36.375.852.563 1.477.563.969 0 2.453-.579 4.453-1.735a58.326 58.326 0 0 0 7.5-5.203l1.781 2.156c-6.843 5.157-11.421 8.313-13.734 9.469-2.312 1.156-4.172 1.734-5.578 1.734-1.156 0-2.07-.421-2.742-1.265-.672-.844-1.008-2.219-1.008-4.125 0-2.25.594-5.688 1.781-10.313l4.828-18.656h-7.593l.843-3.328h7.547l2.625-10.266z" fill="#fff"/></svg>
